X:15
T:15. The Devonshire Go
M:6/8
L:1/8
Q:3/8=120
Z:Peter Dunk, VMP, 2011
K:Bb
b2 f dBd | f2 d f2 d | b2 f dBd | c2 A c2 A | b2 f dBd | f2 d f2 d | gfe dcB | ABG FED :|!
|:DFB DFB | EGB EGB | Ace ecA | DFB DFB | EGB EGB | Ace ecA |  B3 b3 :|!

